static/images/icons/youtube.svg

<?xml version="1.0" encoding="UTF-8"?>
<svg width="42px" height="42px" viewBox="0 0 42 42" version="1.1" xmlns="http://www.w3.org/2000/svg" xmlns:xlink="http://www.w3.org/1999/xlink">
    <title>Group 14 Copy 3</title>
    <defs>
        <polygon id="path-1" points="0 0 30 0 30 21 0 21"></polygon>
        <linearGradient id="holoGradient" gradientTransform="rotate(65)">
        <stop offset="0%" stop-color="#59DECB" /> 
        <stop offset="60%" stop-color="#3B63E7" />
        <stop offset="100%" stop-color="#DE59CC" />
        </linearGradient>
    </defs>
    <g id="Web" stroke="none" stroke-width="1" fill="none" fill-rule="evenodd">
        <g id="DT_EuroRust-'23_vs.2d" transform="translate(-1160.000000, -5348.000000)">
            <g id="Group-32" transform="translate(165.000000, 5283.000000)">
                <g id="Group-14-Copy-3" transform="translate(995.000000, 65.000000)">
                    <circle id="Oval" class="icon-oval" fill="url(#holoGradient)" opacity="1" cx="21" cy="21" r="21"></circle>
                    <g id="Group-3" transform="translate(6.000000, 11.000000)">
                        <mask id="mask-2" fill="white">
                            <use xlink:href="#path-1"></use>
                        </mask>
                        <g id="Clip-2"></g>
                        <path class="icon-inner" d="M12.0906041,14.9970051 L12.0906041,5.99568618 L19.9251616,10.4963456 L12.0906041,14.9970051 Z M29.3343115,3.28375037 C28.9848288,1.98932994 27.9767056,0.975719886 26.6843877,0.629515314 C24.9484955,-0.0417368845 8.13492062,-0.370631228 3.25752452,0.648748901 C1.96520658,0.998800191 0.953242902,2.00856353 0.607600659,3.30298395 C-0.175855092,6.74579609 -0.235382368,14.1891944 0.626803006,17.7089409 C0.976285718,19.0033613 1.98440893,20.0169714 3.27672687,20.3631759 C6.71394696,21.1555997 23.0551441,21.2671545 26.70359,20.3631759 C27.995908,20.0131246 29.0078716,19.0033613 29.3535139,17.7089409 C30.188816,13.9583913 30.2483433,6.97659914 29.3343115,3.28375037 L29.3343115,3.28375037 Z" id="Fill-1" fill="#fff" mask="url(#mask-2)"></path>
                    </g>
                </g>
            </g>
        </g>
    </g>
</svg>

<svg height="42" viewBox="0 0 42 42" width="42" xmlns="http://www.w3.org/2000/svg" xmlns:xlink="http://www.w3.org/1999/xlink"><linearGradient id="a" gradientTransform="matrix(.42261826 .90630779 -.90630779 .42261826 0 0)"><stop offset="0" stop-color="#59decb"/><stop offset=".6" stop-color="#3b63e7"/><stop offset="1" stop-color="#de59cc"/></linearGradient><mask id="b" fill="#fff"><path d="m0 0h30v21h-30z" fill="#fff" fill-rule="evenodd"/></mask><g fill="none" fill-rule="evenodd"><circle cx="21" cy="21" fill="url(#a)" r="21"/><path d="m12.0906041 14.9970051v-9.00131892l7.8345575 4.50065942zm17.2437074-11.71325473c-.3494827-1.29442043-1.3576059-2.30803048-2.6499238-2.65423506-1.7358922-.67125219-18.54946708-1.00014654-23.42686318.01923359-1.29231794.35005129-2.30428162 1.35981463-2.64992386 2.65423505-.78345575 3.44281214-.84298303 10.88621045.01920235 14.40595695.34948271 1.2944204 1.35760592 2.3080305 2.64992386 2.654235 3.43722009.7924238 19.77841723.9039786 23.42686313 0 1.292318-.3500513 2.3042816-1.3598146 2.6499239-2.654235.8353021-3.7505496.8948294-10.73234176-.0192024-14.42519053z" fill="#fff" mask="url(#b)" transform="translate(6 11)"/></g></svg>
